X:4
T:Ossia
M:4/4
L:1/4
K:D
CDEF|GABc!barmem!|CDEF|GABc||
T:
K:C none
M:none
%%multicol start
%%staffwidth 6.5cm
%%postscript gsave barx 0 T 0.6 dup scale
C/E/DEF!barest!|
%%multicol end
K:D treble
CDEF|GABc|CDEF|GABc||
